svgs/thin/file-code.svg

<svg xmlns="http://www.w3.org/2000/svg" viewBox="0 0 384 512"><!--! Font Awesome Pro 6.3.0 by @fontawesome - https://fontawesome.com License - https://fontawesome.com/license (Commercial License) Copyright 2023 Fonticons, Inc. --><path d="M158 258.7C155.1 255.4 150.1 255.1 146.7 257.1l-64 56C80.99 315.5 79.99 317.7 79.99 319.1s1 4.5 2.719 6.031l64 56c1.531 1.312 3.406 1.969 5.281 1.969c2.219 0 4.438-.9375 6.031-2.719c2.906-3.344 2.562-8.406-.75-11.31L100.1 319.1l57.13-49.97C160.6 267.1 160.9 262 158 258.7zM225.1 381.3C227.6 383.1 229.8 384 232 384c1.875 0 3.75-.6562 5.281-1.969l64-56C303 324.5 304 322.3 304 320s-1-4.5-2.719-6.031l-64-56c-3.312-2.875-8.375-2.531-11.31 .75c-2.906 3.344-2.562 8.406 .75 11.31L283.9 320l-57.13 49.97C223.4 372.9 223.1 377.9 225.1 381.3zM374.6 150.6l-141.3-141.3C227.4 3.371 219.2 0 210.7 0H64C28.65 0 0 28.65 0 64l.0065 384c0 35.34 28.65 64 64 64H320c35.35 0 64-28.66 64-64V173.3C384 164.8 380.6 156.6 374.6 150.6zM224 22.63L361.4 160H248C234.8 160 224 149.2 224 136V22.63zM368 448c0 26.47-21.53 48-48 48H64c-26.47 0-48-21.53-48-48V64c0-26.47 21.53-48 48-48h144v120c0 22.06 17.94 40 40 40h120V448z"/></svg>

<svg xmlns="http://www.w3.org/2000/svg" viewBox="0 0 384 512"><!-- Font Awesome Pro 6.0.0-alpha2 by @fontawesome - https://fontawesome.com License - https://fontawesome.com/license (Commercial License) --><path d="M158.025 258.703C155.056 255.422 150.056 255.078 146.712 257.953L82.712 313.953C80.994 315.484 79.994 317.672 79.994 319.984S80.994 324.484 82.712 326.016L146.712 382.016C148.244 383.328 150.119 383.984 151.994 383.984C154.212 383.984 156.431 383.047 158.025 381.266C160.931 377.922 160.587 372.859 157.275 369.953L100.15 319.984L157.275 270.016C160.587 267.109 160.931 262.047 158.025 258.703ZM225.975 381.281C227.569 383.062 229.788 384 232.006 384C233.881 384 235.756 383.344 237.288 382.031L301.288 326.031C303.006 324.5 304.006 322.312 304.006 320S303.006 315.5 301.288 313.969L237.288 257.969C233.975 255.094 228.913 255.437 225.975 258.719C223.069 262.062 223.413 267.125 226.725 270.031L283.85 320L226.725 369.969C223.413 372.875 223.069 377.938 225.975 381.281ZM374.629 150.625L233.371 9.375C227.371 3.371 219.23 0 210.746 0H64C28.652 0 0 28.652 0 64V448C0 483.344 28.652 512 64 512H320C355.348 512 384 483.344 384 448V173.254C384 164.766 380.629 156.629 374.629 150.625ZM224 22.629L361.375 160H248C234.781 160 224 149.234 224 136V22.629ZM368 448C368 474.469 346.469 496 320 496H64C37.531 496 16 474.469 16 448V64C16 37.531 37.531 16 64 16H208V136C208 158.062 225.938 176 248 176H368V448Z"/></svg>
